; generated by PrusaSlicer 2.9.2 on 2025-07-15 at 09:08:03 UTC


;
;
; 

; external perimeters extrusion width = 0.45mm
; perimeters extrusion width = 0.45mm
; infill extrusion width = 0.45mm
; solid infill extrusion width = 0.45mm
; top infill extrusion width = 0.40mm
; first layer extrusion width = 0.42mm

M73 P0 R68
M73 Q0 S68
M201 X1000 Y1000 Z200 E5000 ; sets maximum accelerations, mm/sec^2
M203 X200 Y200 Z12 E120 ; sets maximum feedrates, mm / sec
M204 S1250 T1250 ; sets acceleration (S) and retract acceleration (R), mm/sec^2
M205 X8.00 Y8.00 Z0.40 E4.50 ; sets the jerk limits, mm/sec
M205 S0 T0 ; sets the minimum extruding and travel feed rate, mm/sec

; printing object konektor_v2.stl id:0 copy 0
; stop printing object konektor_v2.stl id:0 copy 0

;TYPE:Custom
M862.3 P "MK3S" ; printer model check
M862.1 P0.4 ; nozzle diameter check
M115 U3.14.1 ; tell printer latest fw version
G90 ; use absolute coordinates
M83 ; extruder relative mode
M104 S240 ; set extruder temp
M140 S85 ; set bed temp
M190 S85 ; wait for bed temp
M109 S240 ; wait for extruder temp
G28 W ; home all without mesh bed level
G80 X101.133 Y81.6235 W42.7436 H43.2629 ; mesh bed levelling

G1 Z0.2 F720
G1 Y-3 F1000 ; go outside print area
G92 E0
G1 X60 E9 F1000 ; intro line
G1 X100 E12.5 F1000 ; intro line

G92 E0
M221 S95

; Don't change E values below. Excessive value can damage the printer.
M907 E430 ; set extruder motor current
G21 ; set units to millimeters
G90 ; use absolute coordinates
M83 ; use relative distances for extrusion

M900 K0.08 ; Filament gcode LA 1.5
M900 K45 ; Filament gcode LA 1.0




M107
;LAYER_CHANGE
;Z:0.2
;HEIGHT:0.2
G1 E-1 F2100
G1 Z.4 F720
G1 X109.788 Y92.839 F10800
G1 Z.2 F720
G1 E1 F2100
M204 S800
;TYPE:Skirt/Brim
;WIDTH:0.42
G1 F1200
G1 X110.769 Y91.679 E.04763
G1 X112.791 Y89.878 E.0849
G1 X114.02 Y89.005 E.04727
G1 X116.246 Y87.754 E.08006
G1 X129.064 Y81.975 E.44086
G1 X130.363 Y81.819 E.04102
G1 X131.058 Y82.075 E.02322
G1 X134.811 Y84.243 E.1359
G1 X135.651 Y85.114 E.03794
G1 X141.697 Y96.54 E.40532
G1 X142.271 Y97.809 E.04367
G1 X142.761 Y99.151 E.04479
G1 X143.413 Y101.778 E.08487
G1 X143.598 Y103.12 E.04248
G1 X143.688 Y105.671 E.08003
G1 X142.234 Y120.563 E.46915
G1 X141.72 Y121.766 E.04102
G1 X141.151 Y122.239 E.0232
G1 X137.397 Y124.406 E.13591
G1 X136.223 Y124.698 E.03793
G1 X122.854 Y124.188 E.41948
G1 X121.399 Y124.004 E.04598
G1 X118.913 Y123.424 E.08004
G1 X116.386 Y122.453 E.08488
G1 X114.02 Y121.137 E.08489
G1 X102.248 Y112.835 E.45166
G1 X101.454 Y111.796 E.041
G1 X101.321 Y111.047 E.02385
G1 X101.321 Y106.845 E.13175
G1 X101.642 Y105.704 E.03716
G1 X108.276 Y94.842 E.39907
G1 X109.018 Y93.749 E.04142
G1 X109.749 Y92.885 E.03549
M204 S1000
;WIPE_START
G1 F8640
G1 X109.788 Y92.839 E-.01393
G1 X110.769 Y91.679 E-.35079
G1 X112.791 Y89.878 E-.62523
G1 X112.826 Y89.853 E-.01005
;WIPE_END
G1 Z.4 F720
; printing object konektor_v2.stl id:0 copy 0
G1 X135.995 Y115.906 F10800
G1 Z.2 F720
G1 E1 F2100
M204 S800
;TYPE:Perimeter
;WIDTH:0.450248
G1 F1200
G1 X135.734 Y116.181 E.01284
G1 X135.197 Y116.687 E.02499
;WIDTH:0.450386
G1 X134.679 Y117.151 E.02356
G1 X134.221 Y117.527 E.02008
;WIDTH:0.448313
G1 X133.591 Y117.991 E.02637
;WIDTH:0.449411
G1 X132.701 Y118.571 E.03591
G1 X132.268 Y118.831 E.01707
;WIDTH:0.449816
G1 X131.18 Y119.39 E.04139
;WIDTH:0.439795
G1 X130.081 Y119.853 E.03935
;WIDTH:0.440262
G1 X128.949 Y120.231 E.03943
;WIDTH:0.440967
G1 X127.816 Y120.518 E.03868
;WIDTH:0.441563
G1 X126.619 Y120.727 E.04028
;WIDTH:0.446243
G1 X125.418 Y120.843 E.04046
;WIDTH:0.444772
G1 X124.23 Y120.867 E.0397
;WIDTH:0.444122
G1 X124.187 Y120.866 E.00143
;WIDTH:0.445517
G1 X123.112 Y120.806 E.03604
;WIDTH:0.446716
G1 X122.008 Y120.667 E.03736
;WIDTH:0.447632
G1 X120.914 Y120.45 E.03753
;WIDTH:0.448397
G1 X119.839 Y120.157 E.03757
;WIDTH:0.448952
G1 X118.788 Y119.79 E.03758
;WIDTH:0.449298
G1 X117.765 Y119.349 E.03764
G1 X117.31 Y119.131 E.01705
;WIDTH:0.449436
G1 X116.288 Y118.559 E.03959
G1 X115.291 Y117.898 E.04043
;WIDTH:0.439677
G1 X114.347 Y117.164 E.03945
;WIDTH:0.440193
G1 X113.462 Y116.361 E.03948
;WIDTH:0.440916
G1 X112.639 Y115.494 E.03956
;WIDTH:0.441883
G1 X111.884 Y114.566 E.03969
;WIDTH:0.445909
G1 X111.2 Y113.582 E.04016
;WIDTH:0.444674
G1 X110.603 Y112.567 E.03934
;WIDTH:0.444527
G1 X110.576 Y112.517 E.0019
;WIDTH:0.445762
G1 X110.107 Y111.558 E.03576
;WIDTH:0.447345
G1 X109.721 Y110.612 E.03436
;WIDTH:0.448201
G1 X109.263 Y109.208 E.04977
;WIDTH:0.482933
G1 X109.206 Y109.05 E.00615
;WIDTH:0.521392
G1 X109.149 Y108.893 E.00665
;WIDTH:0.55985
G1 X109.093 Y108.735 E.00721
G1 X109.07 Y108.554 E.00784
;WIDTH:0.522677
G1 X109.047 Y108.373 E.00728
;WIDTH:0.485503
G1 X109.024 Y108.191 E.00675
;WIDTH:0.449113
G1 X108.878 Y107.311 E.03013
G1 X108.754 Y106.132 E.04004
;WIDTH:0.449378
G1 X108.719 Y105.047 E.03669
G1 X108.724 Y104.502 E.01842
;WIDTH:0.449762
G1 X108.815 Y103.281 E.04142
;WIDTH:0.439835
G1 X108.99 Y102.129 E.03846
;WIDTH:0.440375
G1 X109.256 Y100.965 E.03946
;WIDTH:0.441135
G1 X109.61 Y99.824 E.03956
;WIDTH:0.442083
G1 X110.053 Y98.701 E.04007
;WIDTH:0.445814
G1 X110.581 Y97.615 E.04045
;WIDTH:0.444164
G1 X110.601 Y97.579 E.00137
;WIDTH:0.444502
G1 X111.203 Y96.556 E.03964
;WIDTH:0.44594
G1 X111.799 Y95.691 E.0352
;WIDTH:0.447129
G1 X112.493 Y94.821 E.0374
;WIDTH:0.447911
G1 X113.247 Y93.999 E.03756
;WIDTH:0.448603
G1 X114.056 Y93.234 E.03756
;WIDTH:0.449253
G1 X114.917 Y92.527 E.03764
;WIDTH:0.449369
G1 X115.825 Y91.883 E.03762
G1 X116.25 Y91.606 E.01714
G1 X117.292 Y91.02 E.0404
G1 X118.376 Y90.514 E.04043
;WIDTH:0.439824
G1 X119.494 Y90.092 E.03944
;WIDTH:0.440409
G1 X120.641 Y89.755 E.03951
;WIDTH:0.44122
G1 X121.811 Y89.506 E.03962
;WIDTH:0.442283
G1 X122.996 Y89.346 E.03971
;WIDTH:0.445363
G1 X124.18 Y89.276 E.03969
;WIDTH:0.444789
G1 X124.253 Y89.275 E.00244
;WIDTH:0.444892
G1 X125.426 Y89.299 E.03921
;WIDTH:0.446922
G1 X126.442 Y89.395 E.03428
;WIDTH:0.44771
G1 X127.497 Y89.563 E.03596
;WIDTH:0.450936
G1 X128.534 Y89.799 E.03608
G1 X129.205 Y90.008 E.02384
;WIDTH:0.448368
G1 X129.901 Y90.224 E.02457
;WIDTH:0.448488
G1 X130.818 Y90.594 E.03335
;WIDTH:0.449195
G1 X131.808 Y91.068 E.03708
G1 X132.259 Y91.306 E.01723
G1 X133.231 Y91.9 E.03848
;WIDTH:0.449302
G1 X134.201 Y92.596 E.04034
;WIDTH:0.439974
G1 X135.115 Y93.363 E.03939
;WIDTH:0.440588
G1 X135.969 Y94.198 E.03949
;WIDTH:0.441632
G1 X136.773 Y95.112 E.04036
;WIDTH:0.446389
G1 X137.49 Y96.066 E.04004
;WIDTH:0.445321
G1 X138.124 Y97.056 E.03934
;WIDTH:0.44436
G1 X138.146 Y97.092 E.00141
;WIDTH:0.445077
G1 X138.716 Y98.159 E.04045
;WIDTH:0.446334
G1 X139.132 Y99.095 E.03436
;WIDTH:0.44733
G1 X139.515 Y100.142 E.03749
;WIDTH:0.448162
G1 X139.824 Y101.212 E.03753
;WIDTH:0.448788
G1 X140.057 Y102.301 E.03758
;WIDTH:0.449203
G1 X140.213 Y103.403 E.0376
;WIDTH:0.449414
G1 X140.291 Y104.514 E.03764
G1 X140.306 Y105.049 E.01809
G1 X140.263 Y106.244 E.04042
;WIDTH:0.43955
G1 X140.129 Y107.432 E.03943
;WIDTH:0.439996
G1 X139.906 Y108.606 E.03946
;WIDTH:0.440649
G1 X139.595 Y109.761 E.03956
;WIDTH:0.441561
G1 X139.197 Y110.888 E.03962
;WIDTH:0.44634
G1 X138.714 Y111.986 E.04024
;WIDTH:0.444923
G1 X138.153 Y113.037 E.03982
;WIDTH:0.44389
G1 X138.131 Y113.075 E.00146
;WIDTH:0.445844
G1 X137.541 Y113.999 E.03673
;WIDTH:0.446621
G1 X136.887 Y114.884 E.03694
;WIDTH:0.447721
G1 X136.18 Y115.712 E.03665
;WIDTH:0.450248
G1 X136.037 Y115.863 E.00704
M204 S1000
G1 X135.708 Y115.634 F10800
M204 S800
;TYPE:External perimeter
;WIDTH:0.419999
G1 F1200
G1 X134.886 Y116.464 E.03663
G1 X133.973 Y117.232 E.03741
G1 X133.362 Y117.673 E.02363
G1 X132.066 Y118.501 E.04822
G1 X131.004 Y119.046 E.03743
G1 X129.931 Y119.496 E.03648
G1 X128.827 Y119.864 E.03649
G1 X127.722 Y120.142 E.03573
G1 X126.553 Y120.345 E.0372
G1 X125.383 Y120.456 E.03685
G1 X124.21 Y120.478 E.03678
G1 X123.061 Y120.413 E.03608
G1 X122.06 Y120.28 E.03166
G1 X120.994 Y120.067 E.03408
G1 X119.949 Y119.781 E.03397
G1 X118.926 Y119.423 E.03398
G1 X117.93 Y118.994 E.034
G1 X116.967 Y118.496 E.03399
G1 X116.477 Y118.221 E.01762
G1 X115.505 Y117.576 E.03658
G1 X114.585 Y116.859 E.03657
G1 X113.722 Y116.075 E.03656
G1 X112.921 Y115.228 E.03655
G1 X112.186 Y114.322 E.03658
G1 X111.503 Y113.333 E.03769
G1 X110.926 Y112.346 E.03585
G1 X110.42 Y111.311 E.03612
G1 X110.084 Y110.468 E.02845
G1 X109.634 Y109.092 E.04539
G1 X109.426 Y108.19 E.02902
G1 X109.265 Y107.252 E.02984
G1 X109.145 Y106.102 E.03625
G1 X109.111 Y104.502 E.05018
G1 X109.201 Y103.311 E.03745
G1 X109.372 Y102.188 E.03562
G1 X109.633 Y101.052 E.03655
G1 X109.98 Y99.939 E.03655
G1 X110.414 Y98.844 E.03693
G1 X110.93 Y97.787 E.03688
G1 X111.522 Y96.777 E.03671
G1 X112.171 Y95.841 E.03571
G1 X112.796 Y95.067 E.03119
G1 X113.531 Y94.268 E.03404
G1 X114.319 Y93.524 E.03398
G1 X115.158 Y92.836 E.03402
G1 X116.042 Y92.209 E.03398
G1 X116.465 Y91.928 E.01592
G1 X117.482 Y91.357 E.03657
G1 X118.539 Y90.865 E.03656
G1 X119.63 Y90.454 E.03655
G1 X120.75 Y90.127 E.03658
G1 X121.891 Y89.885 E.03657
G1 X123.047 Y89.73 E.03657
G1 X124.2 Y89.664 E.03621
G1 X125.389 Y89.686 E.03729
G1 X126.559 Y89.798 E.03685
G1 X127.431 Y89.948 E.02774
G1 X128.439 Y90.18 E.03243
G1 X129.087 Y90.365 E.02113
G1 X129.929 Y90.645 E.02782
G1 X130.667 Y90.954 E.02509
G1 X132.074 Y91.646 E.04916
G1 X133.029 Y92.23 E.0351
G1 X133.974 Y92.91 E.0365
G1 X134.866 Y93.659 E.03652
G1 X135.698 Y94.474 E.03652
G1 X136.481 Y95.367 E.03724
G1 X137.22 Y96.361 E.03884
G1 X137.796 Y97.265 E.03361
G1 X138.354 Y98.303 E.03695
G1 X138.827 Y99.37 E.03659
G1 X139.147 Y100.272 E.03001
G1 X139.447 Y101.314 E.034
G1 X139.673 Y102.374 E.03398
G1 X139.824 Y103.448 E.03401
G1 X139.92 Y105.064 E.05076
G1 X139.876 Y106.229 E.03655
G1 X139.745 Y107.388 E.03657
G1 X139.526 Y108.534 E.03658
G1 X139.221 Y109.659 E.03655
G1 X138.775 Y110.888 E.04099
G1 X138.36 Y111.827 E.03219
G1 X137.811 Y112.853 E.03649
G1 X137.171 Y113.854 E.03725
G1 X136.575 Y114.65 E.03118
G1 X135.886 Y115.455 E.03322
G1 X135.751 Y115.591 E.00601
M204 S1000
;WIPE_START
G1 F8640
G1 X135.708 Y115.634 E-.01404
G1 X134.886 Y116.464 E-.26973
G1 X133.973 Y117.232 E-.27548
G1 X133.362 Y117.673 E-.17399
G1 X132.388 Y118.295 E-.26676
;WIPE_END
G1 Z.4 F720
G1 X104.314 Y108.944 F10800
G1 Z.2 F720
G1 E1 F2100
M204 S800
;TYPE:Perimeter
;WIDTH:0.493084
G1 F1200
G1 X106.99 Y108.954 E.10017
;WIDTH:0.49235
G1 X108.047 Y108.952 E.0395
;WIDTH:0.468864
G1 X108.167 Y108.946 E.00426
M204 S1000
;WIPE_START
G1 F8640
G1 X108.047 Y108.952 E-.02774
G1 X106.99 Y108.954 E-.24406
G1 X104.314 Y108.944 E-.6179
;WIPE_END
G1 E-.1103 F2100
G1 Z.4 F720
G1 X136.291 Y116.187 F10800
G1 Z.2 F720
G1 E1 F2100
M204 S800
;WIDTH:0.455904
G1 F1200
G1 X135.972 Y116.525 E.01596
G1 X135.885 Y116.93 E.01422
;WIDTH:0.421404
G1 X135.955 Y117.144 E.00709
;WIDTH:0.432788
G1 X136.125 Y117.454 E.01146
;WIDTH:0.43396
G1 X137.853 Y120.487 E.1135
;WIDTH:0.423066
G1 X137.947 Y120.651 E.00598
G1 X137.62 Y120.84 E.01194
G1 X137.524 Y120.678 E.00595
;WIDTH:0.43396
G1 X135.786 Y117.647 E.11361
;WIDTH:0.432789
G1 X135.608 Y117.462 E.00832
;WIDTH:0.421404
G1 X135.362 Y117.368 E.00829
;WIDTH:0.450386
G1 X134.934 Y117.468 E.01489
G1 X134.423 Y117.87 E.02203
;WIDTH:0.439721
G1 X133.461 Y118.565 E.03916
;WIDTH:0.449411
G1 X132.907 Y118.922 E.02228
G1 X132.417 Y119.202 E.01908
;WIDTH:0.449816
G1 X131.925 Y119.471 E.01897
G1 X131.355 Y119.746 E.02141
;WIDTH:0.449198
G1 X130.899 Y119.955 E.01695
G1 X129.837 Y120.368 E.03849
;WIDTH:0.448681
G1 X128.748 Y120.705 E.03846
;WIDTH:0.447916
G1 X127.637 Y120.964 E.03842
;WIDTH:0.447634
G1 X126.499 Y121.148 E.03879
;WIDTH:0.446243
G1 X125.458 Y121.241 E.03505
;WIDTH:0.444772
G1 X124.238 Y121.268 E.04078
;WIDTH:0.444122
G1 X124.168 Y121.266 E.00234
;WIDTH:0.445517
G1 X122.945 Y121.192 E.04102
;WIDTH:0.442235
G1 X121.731 Y121.026 E.04068
;WIDTH:0.441202
G1 X120.534 Y120.77 E.04054
;WIDTH:0.44041
G1 X119.359 Y120.423 E.04049
;WIDTH:0.439826
G1 X118.214 Y119.99 E.0404
;WIDTH:0.449368
G1 X117.586 Y119.714 E.02318
G1 X116.571 Y119.189 E.03862
G1 X115.594 Y118.594 E.03866
G1 X114.663 Y117.931 E.03863
;WIDTH:0.44909
G1 X113.78 Y117.205 E.03861
;WIDTH:0.448603
G1 X112.95 Y116.418 E.03858
;WIDTH:0.447911
G1 X112.178 Y115.575 E.03849
;WIDTH:0.447008
G1 X111.472 Y114.686 E.03814
;WIDTH:0.445909
G1 X110.872 Y113.812 E.03552
;WIDTH:0.444674
G1 X110.256 Y112.77 E.04044
;WIDTH:0.444527
G1 X110.219 Y112.697 E.00273
;WIDTH:0.445762
G1 X109.683 Y111.591 E.04117
;WIDTH:0.442241
G1 X109.234 Y110.445 E.04087
;WIDTH:0.444107
G1 X108.893 Y109.371 E.03759
;WIDTH:0.482688
G1 X108.827 Y109.25 E.00504
;WIDTH:0.521269
G1 X108.762 Y109.129 E.00546
;WIDTH:0.55985
G1 X108.696 Y109.007 E.00596
G1 X108.556 Y108.936 E.00675
G1 X108.361 Y108.941 E.00838
;WIDTH:0.514357
G1 X108.167 Y108.946 E.00761
;WIDTH:0.506161
G1 X108.326 Y108.912 E.00626
;WIDTH:0.533006
G1 X108.424 Y108.855 E.00462
;WIDTH:0.55985
G1 X108.522 Y108.798 E.00487
G1 X108.614 Y108.67 E.00678
G1 X108.621 Y108.559 E.00478
;WIDTH:0.524414
G1 X108.629 Y108.447 E.0045
;WIDTH:0.488978
G1 X108.637 Y108.336 E.00413
;WIDTH:0.453542
G1 X108.594 Y108.085 E.00869
;WIDTH:0.44375
G1 X108.422 Y106.9 E.03991
;WIDTH:0.448878
G1 X108.349 Y106.161 E.02507
G1 X108.328 Y105.659 E.01696
;WIDTH:0.449378
G1 X108.313 Y105.04 E.02093
G1 X108.33 Y104.435 E.02046
;WIDTH:0.449762
G1 X108.354 Y103.91 E.01778
G1 X108.475 Y102.781 E.03841
;WIDTH:0.448963
G1 X108.675 Y101.66 E.03845
;WIDTH:0.448657
G1 X108.954 Y100.554 E.03848
;WIDTH:0.44795
G1 X109.31 Y99.471 E.03839
;WIDTH:0.447041
G1 X109.743 Y98.41 E.03851
;WIDTH:0.445814
G1 X110.221 Y97.441 E.0362
;WIDTH:0.444207
G1 X110.245 Y97.393 E.00179
;WIDTH:0.444502
G1 X110.871 Y96.332 E.04114
;WIDTH:0.44594
G1 X111.566 Y95.335 E.04073
;WIDTH:0.442262
G1 X112.348 Y94.377 E.04106
;WIDTH:0.440917
G1 X113.191 Y93.489 E.04052
;WIDTH:0.440193
G1 X114.09 Y92.676 E.04004
;WIDTH:0.439963
G1 X115.067 Y91.917 E.04084
;WIDTH:0.449437
G1 X115.606 Y91.54 E.02223
G1 X116.088 Y91.241 E.01917
G1 X116.583 Y90.946 E.01948
G1 X117.128 Y90.658 E.02084
;WIDTH:0.449298
G1 X117.599 Y90.422 E.0178
G1 X118.65 Y89.97 E.03866
;WIDTH:0.448951
G1 X119.729 Y89.594 E.03858
;WIDTH:0.448396
G1 X120.833 Y89.295 E.03856
;WIDTH:0.447632
G1 X121.956 Y89.075 E.03851
;WIDTH:0.446722
G1 X123.076 Y88.935 E.0379
;WIDTH:0.445363
G1 X124.156 Y88.877 E.03619
;WIDTH:0.444789
G1 X124.253 Y88.873 E.00324
;WIDTH:0.444892
G1 X125.456 Y88.9 E.04022
;WIDTH:0.446922
G1 X126.704 Y89.025 E.04213
;WIDTH:0.44151
G1 X127.886 Y89.231 E.03977
;WIDTH:0.450936
G1 X128.628 Y89.402 E.02583
G1 X128.89 Y89.391 E.0089
;WIDTH:0.433381
G1 X129.091 Y89.29 E.0073
;WIDTH:0.428195
G1 X129.246 Y89.123 E.0073
;WIDTH:0.432796
G1 X129.428 Y88.819 E.01149
;WIDTH:0.433963
G1 X131.189 Y85.807 E.11345
;WIDTH:0.423067
G1 X131.285 Y85.644 E.00598
G1 X131.611 Y85.833 E.01191
G1 X131.519 Y85.997 E.00594
;WIDTH:0.433963
G1 X129.764 Y89.015 E.11352
;WIDTH:0.432796
G1 X129.689 Y89.262 E.00837
;WIDTH:0.428195
G1 X129.722 Y89.487 E.00729
;WIDTH:0.448368
G1 X130.041 Y89.843 E.01612
G1 X130.245 Y89.923 E.00739
;WIDTH:0.442709
G1 X131.366 Y90.401 E.04051
;WIDTH:0.449141
G1 X132 Y90.711 E.02384
G1 X132.477 Y90.974 E.0184
G1 X132.97 Y91.259 E.01923
G1 X133.492 Y91.598 E.02102
;WIDTH:0.449302
G1 X133.911 Y91.881 E.01709
G1 X134.811 Y92.571 E.03832
;WIDTH:0.449044
G1 X135.663 Y93.325 E.03842
;WIDTH:0.448518
G1 X136.462 Y94.138 E.03844
;WIDTH:0.447844
G1 X137.198 Y95 E.03816
;WIDTH:0.446389
G1 X137.808 Y95.824 E.03439
;WIDTH:0.445321
G1 X138.462 Y96.84 E.04043
;WIDTH:0.444374
G1 X138.492 Y96.889 E.00192
;WIDTH:0.445077
G1 X139.079 Y97.991 E.04175
;WIDTH:0.446334
G1 X139.572 Y99.118 E.04126
;WIDTH:0.441516
G1 X139.978 Y100.274 E.04061
;WIDTH:0.44065
G1 X140.295 Y101.456 E.04047
;WIDTH:0.439996
G1 X140.522 Y102.66 E.04045
;WIDTH:0.449203
G1 X140.618 Y103.366 E.02407
G1 X140.659 Y103.876 E.01728
;WIDTH:0.449414
G1 X140.698 Y104.506 E.02133
;WIDTH:0.449413
G1 X140.697 Y105.65 E.03867
G1 X140.657 Y106.291 E.02171
;WIDTH:0.449203
G1 X140.616 Y106.79 E.01691
G1 X140.455 Y107.922 E.03863
;WIDTH:0.448788
G1 X140.214 Y109.04 E.0386
;WIDTH:0.448162
G1 X139.895 Y110.139 E.03856
;WIDTH:0.447372
