; generated by PrusaSlicer 2.9.2 on 2025-07-15 at 08:26:10 UTC


;
;
; 

; external perimeters extrusion width = 0.45mm
; perimeters extrusion width = 0.45mm
; infill extrusion width = 0.45mm
; solid infill extrusion width = 0.45mm
; top infill extrusion width = 0.40mm
; first layer extrusion width = 0.42mm

M73 P0 R119
M73 Q0 S120
M201 X1000 Y1000 Z200 E5000 ; sets maximum accelerations, mm/sec^2
M203 X200 Y200 Z12 E120 ; sets maximum feedrates, mm / sec
M204 S1250 T1250 ; sets acceleration (S) and retract acceleration (R), mm/sec^2
M205 X8.00 Y8.00 Z0.40 E4.50 ; sets the jerk limits, mm/sec
M205 S0 T0 ; sets the minimum extruding and travel feed rate, mm/sec

; printing object krilo_p2_v3.stl id:0 copy 0
; stop printing object krilo_p2_v3.stl id:0 copy 0

;TYPE:Custom
M862.3 P "MK3S" ; printer model check
M862.1 P0.4 ; nozzle diameter check
M115 U3.14.1 ; tell printer latest fw version
G90 ; use absolute coordinates
M83 ; extruder relative mode
M104 S240 ; set extruder temp
M140 S85 ; set bed temp
M190 S85 ; wait for bed temp
M109 S240 ; wait for extruder temp
G28 W ; home all without mesh bed level
G80 X54.6688 Y33.9378 W140.662 H139.857 ; mesh bed levelling

G1 Z0.2 F720
G1 Y-3 F1000 ; go outside print area
G92 E0
G1 X60 E9 F1000 ; intro line
G1 X100 E12.5 F1000 ; intro line

G92 E0
M221 S95

; Don't change E values below. Excessive value can damage the printer.
M907 E430 ; set extruder motor current
G21 ; set units to millimeters
G90 ; use absolute coordinates
M83 ; use relative distances for extrusion

M900 K0.08 ; Filament gcode LA 1.5
M900 K45 ; Filament gcode LA 1.0




M107
;LAYER_CHANGE
;Z:0.2
;HEIGHT:0.2
G1 E-1 F2100
G1 Z.4 F720
G1 X62.005 Y35.525 F10800
G1 Z.2 F720
G1 E1 F2100
M204 S800
;TYPE:Skirt/Brim
;WIDTH:0.42
G1 F1200
G1 X62.819 Y34.502 E.04099
G1 X64.1 Y34.126 E.04186
G1 X65.322 Y34.156 E.03833
G1 X69.962 Y34.34 E.1456
G1 X75.276 Y34.674 E.16695
G1 X83.603 Y35.484 E.26232
G1 X89.057 Y36.198 E.17247
G1 X92.686 Y36.769 E.11518
G1 X97.137 Y37.538 E.14163
G1 X102.702 Y38.654 E.17796
G1 X110.503 Y40.495 E.25131
G1 X116.149 Y42.03 E.18345
G1 X119.322 Y42.985 E.1039
G1 X123.641 Y44.341 E.14194
G1 X129.337 Y46.31 E.18896
G1 X135.814 Y48.784 E.21739
G1 X142.791 Y51.737 E.23755
G1 X148.497 Y54.383 E.19721
G1 X151.073 Y55.67 E.09029
G1 X155.104 Y57.72 E.14179
G1 X160.772 Y60.829 E.2027
G1 X166.767 Y64.379 E.21845
G1 X172.61 Y68.113 E.21742
G1 X178.419 Y72.112 E.22112
G1 X184.366 Y76.535 E.23238
G1 X189.342 Y80.482 E.19914
G1 X194.388 Y84.764 E.2075
G1 X195.143 Y86.417 E.05698
G1 X195.143 Y141.417 E1.72449
G1 X194.994 Y144.446 E.09509
G1 X194.658 Y146.982 E.08021
G1 X194.04 Y149.769 E.08951
G1 X193.199 Y152.434 E.08762
G1 X192.039 Y155.198 E.09399
G1 X190.814 Y157.538 E.08281
G1 X189.199 Y160.047 E.09356
G1 X187.473 Y162.267 E.08817
G1 X185.707 Y164.186 E.08177
G1 X183.843 Y165.901 E.07942
M73 Q0 S119
G1 X181.23 Y167.911 E.10336
G1 X179.001 Y169.321 E.0827
G1 X176.35 Y170.684 E.09346
G1 X173.92 Y171.68 E.08234
G1 X171.165 Y172.541 E.0905
G1 X168.451 Y173.133 E.0871
G1 X165.617 Y173.494 E.08958
G1 X162.954 Y173.606 E.08357
G1 X64.046 Y173.606 E3.10119
G1 X62.798 Y173.215 E.04101
M73 P0 R118
G1 X61.902 Y171.859 E.05096
G1 X54.857 Y137.419 E1.1022
G1 X54.857 Y54.419 E2.60241
G1 X55.005 Y53.63 E.02517
G1 X61.983 Y35.581 E.60674
M204 S1000
;WIPE_START
G1 F8640
G1 X62.005 Y35.525 E-.01389
G1 X62.819 Y34.502 E-.30187
G1 X64.1 Y34.126 E-.30826
G1 X65.322 Y34.156 E-.28225
G1 X65.728 Y34.172 E-.09373
;WIPE_END
G1 Z.4 F720
; printing object krilo_p2_v3.stl id:0 copy 0
G1 X64.836 Y37.128 F10800
G1 Z.2 F720
G1 E1 F2100
M204 S800
;TYPE:Perimeter
;WIDTH:0.419999
G1 F1200
G1 X69.819 Y37.313 E.15635
G1 X72.093 Y37.445 E.07142
G1 X76.549 Y37.763 E.14007
G1 X78.818 Y37.973 E.07145
G1 X83.261 Y38.44 E.14007
G1 X85.521 Y38.727 E.07143
G1 X89.945 Y39.34 E.14004
G1 X92.195 Y39.704 E.07146
G1 X96.597 Y40.465 E.14007
G1 X98.832 Y40.904 E.07142
G1 X103.206 Y41.811 E.14006
G1 X105.425 Y42.327 E.07143
G1 X109.767 Y43.379 E.14008
G1 X111.967 Y43.969 E.07142
G1 X116.272 Y45.165 E.14009
G1 X122.711 Y47.168 E.21143
G1 X129.083 Y49.386 E.21155
G1 X135.375 Y51.816 E.21148
G1 X141.583 Y54.456 E.21152
G1 X147.698 Y57.302 E.21148
G1 X153.715 Y60.352 E.21151
G1 X159.626 Y63.602 E.2115
G1 X165.425 Y67.048 E.2115
G1 X171.106 Y70.686 E.21152
G1 X176.661 Y74.512 E.21149
G1 X182.084 Y78.523 E.21149
G1 X187.371 Y82.713 E.21152
G1 X192.167 Y86.781 E.19718
G1 X192.167 Y92.853 E.19038
G1 X192.167 Y141.401 E1.52219
G1 X192.055 Y143.961 E.08034
G1 X191.723 Y146.485 E.07982
G1 X191.173 Y148.971 E.07983
G1 X190.408 Y151.399 E.07982
G1 X189.435 Y153.751 E.07981
G1 X188.261 Y156.009 E.0798
G1 X186.871 Y158.19 E.08109
G1 X185.317 Y160.212 E.07996
G1 X183.593 Y162.091 E.07996
G1 X181.711 Y163.812 E.07996
G1 X179.687 Y165.362 E.07993
G1 X177.536 Y166.73 E.07993
G1 X175.274 Y167.905 E.07992
G1 X172.919 Y168.877 E.07988
G1 X170.491 Y169.641 E.07981
G1 X168.008 Y170.189 E.07973
G1 X165.49 Y170.519 E.07963
G1 X162.937 Y170.63 E.08012
G1 X64.833 Y170.63 E3.07598
G1 X64.827 Y136.101 E1.08263
G1 X64.715 Y135.835 E.00905
G1 X64.492 Y135.661 E.00887
G1 X64.189 Y135.62 E.00959
G1 X57.833 Y136.514 E.20125
G1 X57.833 Y130.324 E.19408
G1 X64.189 Y131.218 E.20125
G1 X64.349 Y131.217 E.00502
G1 X64.598 Y131.116 E.00843
G1 X64.766 Y130.924 E.008
G1 X64.833 Y130.657 E.00863
G1 X64.827 Y111.097 E.61329
G1 X64.713 Y110.832 E.00905
G1 X64.49 Y110.66 E.00883
G1 X64.189 Y110.62 E.00952
G1 X57.833 Y111.514 E.20125
G1 X57.833 Y105.324 E.19408
G1 X64.189 Y106.218 E.20125
G1 X64.348 Y106.217 E.00499
G1 X64.595 Y106.118 E.00834
G1 X64.765 Y105.927 E.00802
G1 X64.833 Y105.657 E.00873
G1 X64.827 Y86.097 E.61329
G1 X64.713 Y85.832 E.00905
G1 X64.49 Y85.66 E.00883
G1 X64.189 Y85.62 E.00952
G1 X57.833 Y86.514 E.20125
G1 X57.833 Y80.324 E.19408
G1 X64.189 Y81.218 E.20125
G1 X64.348 Y81.217 E.00499
G1 X64.595 Y81.118 E.00834
G1 X64.765 Y80.927 E.00802
G1 X64.833 Y80.657 E.00873
G1 X64.827 Y61.097 E.61329
G1 X64.713 Y60.833 E.00902
G1 X64.49 Y60.661 E.00883
G1 X64.189 Y60.62 E.00952
G1 X57.833 Y61.514 E.20125
G1 X57.833 Y55.324 E.19408
G1 X64.189 Y56.218 E.20125
G1 X64.348 Y56.217 E.00499
G1 X64.596 Y56.118 E.00837
G1 X64.765 Y55.926 E.00802
G1 X64.833 Y55.657 E.0087
G1 X64.833 Y37.185 E.57918
M204 S1000
G1 X64.456 Y36.737 F10800
M204 S800
;TYPE:External perimeter
G1 F1200
G1 X69.837 Y36.936 E.16883
G1 X72.118 Y37.069 E.07164
G1 X76.58 Y37.388 E.14026
G1 X78.855 Y37.598 E.07163
G1 X83.304 Y38.065 E.14026
G1 X85.57 Y38.353 E.07162
G1 X90.001 Y38.967 E.14026
G1 X92.257 Y39.332 E.07165
G1 X96.665 Y40.094 E.14026
G1 X98.906 Y40.535 E.07161
G1 X103.287 Y41.443 E.14028
G1 X105.512 Y41.96 E.07162
G1 X109.86 Y43.013 E.14027
G1 X112.066 Y43.605 E.07161
G1 X116.377 Y44.803 E.14029
G1 X122.83 Y46.81 E.21189
G1 X129.213 Y49.032 E.21191
G1 X135.517 Y51.467 E.21189
G1 X141.736 Y54.111 E.21188
G1 X147.863 Y56.963 E.2119
G1 X153.891 Y60.018 E.21189
G1 X159.814 Y63.274 E.21192
G1 X165.623 Y66.727 E.21189
G1 X171.314 Y70.372 E.2119
G1 X176.88 Y74.206 E.21191
G1 X182.314 Y78.224 E.2119
G1 X187.61 Y82.422 E.21189
G1 X192.544 Y86.606 E.20284
G1 X192.544 Y92.853 E.19587
G1 X192.544 Y141.409 E1.52244
G1 X192.431 Y143.994 E.08113
G1 X192.095 Y146.551 E.08086
G1 X191.537 Y149.069 E.08087
G1 X190.763 Y151.528 E.08083
G1 X189.777 Y153.911 E.08086
G1 X188.588 Y156.198 E.08082
G1 X187.18 Y158.407 E.08213
G1 X185.606 Y160.455 E.08099
G1 X183.859 Y162.358 E.081
G1 X181.954 Y164.101 E.08096
G1 X179.903 Y165.672 E.081
G1 X177.724 Y167.057 E.08095
G1 X175.433 Y168.247 E.08094
G1 X173.048 Y169.232 E.08091
G1 X170.588 Y170.005 E.08085
G1 X168.074 Y170.561 E.08073
G1 X165.523 Y170.895 E.08067
G1 X162.945 Y171.007 E.08091
G1 X64.456 Y171.007 E3.08805
G1 X64.456 Y136.171 E1.09226
M73 P1 R118
M73 Q1 S119
G1 X64.378 Y136.027 E.00513
G1 X64.241 Y135.994 E.00442
G1 X57.456 Y136.947 E.21483
G1 X57.456 Y129.891 E.22124
G1 X64.251 Y130.845 E.21514
M73 Q1 S118
G1 X64.401 Y130.79 E.00501
G1 X64.456 Y130.661 E.0044
G1 X64.456 Y111.171 E.61109
G1 X64.377 Y111.027 E.00515
G1 X64.241 Y110.994 E.00439
G1 X57.456 Y111.947 E.21483
G1 X57.456 Y104.891 E.22124
G1 X64.251 Y105.845 E.21514
G1 X64.4 Y105.791 E.00497
G1 X64.456 Y105.661 E.00444
G1 X64.456 Y86.169 E.61116
G1 X64.377 Y86.027 E.00509
G1 X64.241 Y85.994 E.00439
G1 X57.456 Y86.947 E.21483
G1 X57.456 Y79.891 E.22124
G1 X64.251 Y80.845 E.21514
G1 X64.4 Y80.791 E.00497
G1 X64.456 Y80.657 E.00455
G1 X64.455 Y61.163 E.61122
G1 X64.377 Y61.027 E.00492
M73 P1 R117
G1 X64.241 Y60.994 E.00439
G1 X57.456 Y61.947 E.21483
G1 X57.456 Y54.891 E.22124
G1 X64.251 Y55.845 E.21514
G1 X64.4 Y55.791 E.00497
G1 X64.456 Y55.657 E.00455
G1 X64.456 Y36.797 E.59134
M204 S1000
;WIPE_START
G1 F8640
G1 X64.456 Y36.737 E-.01385
G1 X68.724 Y36.895 E-.98615
;WIPE_END
G1 Z.4 F720
G1 X191.997 Y87.632 F10800
G1 Z.2 F720
G1 E1 F2100
M204 S800
;TYPE:Solid infill
;WIDTH:0.420033
G1 F1200
G1 X188.377 Y84.012 E.16053
G1 X187.156 Y82.976 E.05021
G1 X185.479 Y81.647 E.0671
G1 X191.828 Y87.996 E.28155
G1 X191.828 Y88.529 E.01671
G1 X182.907 Y79.608 E.39561
G1 X181.878 Y78.793 E.04116
G1 X180.65 Y77.884 E.04791
G1 X191.828 Y89.062 E.4957
G1 X191.828 Y89.596 E.01674
G1 X178.603 Y76.371 E.58647
G1 X176.556 Y74.857 E.07984
G1 X191.828 Y90.129 E.67725
G1 X191.828 Y90.662 E.01671
G1 X174.827 Y73.661 E.75392
G1 X173.113 Y72.481 E.06525
G1 X191.828 Y91.196 E.82993
G1 X191.828 Y91.729 E.01671
G1 X171.399 Y71.3 E.90594
G1 X170.918 Y70.969 E.01831
G1 X169.85 Y70.285 E.03977
G1 X191.828 Y92.262 E.97461
G1 X191.828 Y92.796 E.01674
G1 X168.367 Y69.335 E1.04039
G1 X166.883 Y68.384 E.05527
G1 X191.828 Y93.329 E1.1062
G1 X191.828 Y93.862 E.01671
G1 X165.4 Y67.434 E1.17197
G1 X164.068 Y66.636 E.04869
G1 X191.828 Y94.395 E1.23101
G1 X191.828 Y94.929 E.01674
G1 X162.754 Y65.855 E1.2893
G1 X161.439 Y65.074 E.04796
G1 X191.828 Y95.462 E1.3476
G1 X191.828 Y95.995 E.01671
G1 X160.125 Y64.293 E1.40587
G1 X158.875 Y63.576 E.04519
G1 X191.828 Y96.529 E1.46132
G1 X191.828 Y97.062 E.01671
G1 X157.69 Y62.924 E1.51387
G1 X156.506 Y62.273 E.04237
G1 X191.828 Y97.595 E1.56638
G1 X191.828 Y98.129 E.01674
G1 X155.321 Y61.622 E1.61892
G1 X154.137 Y60.971 E.04237
G1 X191.828 Y98.662 E1.67143
G1 X191.828 Y99.195 E.01671
G1 X153.005 Y60.372 E1.72163
G1 X151.923 Y59.824 E.03803
G1 X191.828 Y99.729 E1.76961
G1 X191.828 Y100.262 E.01671
G1 X150.842 Y59.276 E1.81755
G1 X149.76 Y58.728 E.03803
G1 X191.828 Y100.795 E1.86551
G1 X191.828 Y101.329 E.01674
G1 X148.679 Y58.18 E1.91347
G1 X147.597 Y57.632 E.03803
M73 Q1 S117
G1 X191.828 Y101.862 E1.96143
G1 X191.828 Y102.395 E.01671
G1 X146.596 Y57.164 E2.00582
G1 X145.598 Y56.699 E.03452
M73 P2 R116
M73 Q2 S117
G1 X191.828 Y102.929 E2.0501
G1 X191.828 Y103.462 E.01671
G1 X144.601 Y56.235 E2.09431
G1 X143.603 Y55.771 E.03451
G1 X191.828 Y103.995 E2.13854
G1 X191.828 Y104.529 E.01674
G1 X142.605 Y55.306 E2.18282
G1 X141.608 Y54.842 E.03448
G1 X191.828 Y105.062 E2.22704
G1 X191.828 Y105.595 E.01671
G1 X140.668 Y54.436 E2.2687
G1 X139.741 Y54.041 E.0316
G1 X191.828 Y106.128 E2.30983
G1 X191.828 Y106.662 E.01674
G1 X138.813 Y53.647 E2.35098
G1 X137.885 Y53.252 E.03163
G1 X191.828 Y107.195 E2.39213
G1 X191.828 Y107.728 E.01671
G1 X136.957 Y52.858 E2.43327
G1 X136.029 Y52.463 E.03163
G1 X191.828 Y108.262 E2.47444
G1 X191.828 Y108.795 E.01671
G1 X135.11 Y52.078 E2.51517
G1 X134.241 Y51.742 E.02922
G1 X191.828 Y109.328 E2.55371
G1 X191.828 Y109.862 E.01674
G1 X133.373 Y51.406 E2.59224
G1 X132.504 Y51.071 E.0292
M73 Q2 S116
G1 X191.828 Y110.395 E2.63076
G1 X191.828 Y110.928 E.01671
G1 X131.635 Y50.735 E2.66929
G1 X130.766 Y50.4 E.0292
M73 P2 R115
G1 X191.828 Y111.462 E2.70783
G1 X191.828 Y111.995 E.01671
G1 X129.897 Y50.064 E2.74637
G1 X129.028 Y49.729 E.0292
M73 P3 R115
G1 X191.828 Y112.528 E2.78488
G1 X191.828 Y113.062 E.01674
M73 Q3 S116
G1 X128.206 Y49.44 E2.82136
G1 X127.388 Y49.155 E.02716
G1 X191.828 Y113.595 E2.85763
G1 X191.828 Y114.128 E.01671
G1 X126.57 Y48.87 E2.89391
G1 X125.752 Y48.585 E.02716
G1 X191.828 Y114.662 E2.9302
G1 X191.828 Y115.195 E.01671
G1 X124.933 Y48.301 E2.96648
G1 X124.115 Y48.016 E.02716
G1 X191.828 Y115.728 E3.00275
G1 X191.828 Y116.262 E.01674
G1 X123.297 Y47.731 E3.03905
G1 X122.485 Y47.452 E.02692
G1 X191.828 Y116.795 E3.07506
G1 X191.828 Y117.328 E.01671
M73 Q3 S115
G1 X121.708 Y47.208 E3.10951
G1 X120.93 Y46.964 E.02557
G1 X191.828 Y117.861 E3.14399
G1 X191.828 Y118.395 E.01674
M73 P3 R114
G1 X120.153 Y46.72 E3.17847
G1 X119.376 Y46.476 E.02554
G1 X191.828 Y118.928 E3.21293
G1 X191.828 Y119.461 E.01671
G1 X118.598 Y46.232 E3.24741
G1 X117.828 Y45.995 E.02526
G1 X191.828 Y119.995 E3.28157
G1 X191.828 Y120.528 E.01671
M73 P4 R114
M73 Q4 S115
G1 X117.06 Y45.76 E3.31563
G1 X116.292 Y45.526 E.02518
G1 X191.828 Y121.061 E3.34967
G1 X191.828 Y121.595 E.01674
G1 X115.549 Y45.316 E3.38264
G1 X114.811 Y45.111 E.02402
G1 X191.828 Y122.128 E3.41537
G1 X191.828 Y122.661 E.01671
G1 X114.073 Y44.906 E3.44809
G1 X113.334 Y44.701 E.02405
G1 X191.828 Y123.195 E3.48086
G1 X191.828 Y123.728 E.01671
M73 Q4 S114
G1 X112.596 Y44.496 E3.51359
G1 X111.858 Y44.291 E.02402
M73 P4 R113
G1 X191.828 Y124.261 E3.54632
G1 X191.828 Y124.795 E.01674
G1 X111.129 Y44.095 E3.57867
G1 X110.399 Y43.9 E.02369
G1 X191.828 Y125.328 E3.611
G1 X191.828 Y125.861 E.01671
G1 X109.671 Y43.704 E3.6433
G1 X108.967 Y43.534 E.02271
G1 X191.828 Y126.395 E3.67452
G1 X191.828 Y126.928 E.01671
G1 X108.263 Y43.363 E3.70574
G1 X107.559 Y43.193 E.02271
M73 P5 R113
M73 Q5 S114
G1 X191.828 Y127.461 E3.73694
G1 X191.828 Y127.995 E.01674
G1 X106.856 Y43.022 E3.76816
G1 X106.152 Y42.852 E.02271
G1 X191.828 Y128.528 E3.79935
G1 X191.828 Y129.061 E.01671
M73 Q5 S113
G1 X105.448 Y42.682 E3.83055
G1 X104.752 Y42.519 E.02242
M73 P5 R112
G1 X191.828 Y129.594 E3.86142
G1 X191.828 Y130.128 E.01674
G1 X104.057 Y42.357 E3.89226
G1 X103.363 Y42.196 E.02234
G1 X191.828 Y130.661 E3.92303
G1 X191.828 Y131.194 E.01671
G1 X102.682 Y42.049 E3.95321
G1 X102.01 Y41.91 E.02152
G1 X191.828 Y131.728 E3.98303
G1 X191.828 Y132.261 E.01671
G1 X101.337 Y41.77 E4.01288
G1 X100.664 Y41.631 E.02155
G1 X191.828 Y132.794 E4.0427
G1 X191.828 Y133.328 E.01674
M73 P6 R112
G1 X99.991 Y41.491 E4.07257
G1 X99.319 Y41.352 E.02152
M73 Q6 S113
G1 X191.828 Y133.861 E4.10237
G1 X191.828 Y134.394 E.01671
M73 P6 R111
M73 Q6 S112
G1 X98.647 Y41.214 E4.13215
G1 X97.983 Y41.083 E.02122
G1 X191.828 Y134.928 E4.16161
G1 X191.828 Y135.461 E.01671
G1 X97.32 Y40.953 E4.19101
G1 X96.656 Y40.822 E.02122
G1 X191.828 Y135.994 E4.22046
G1 X191.828 Y136.528 E.01674
G1 X96.007 Y40.707 E4.24924
G1 X95.363 Y40.596 E.02049
G1 X191.828 Y137.061 E4.2778
G1 X191.828 Y137.594 E.01671
G1 X94.718 Y40.484 E4.3064
G1 X94.073 Y40.373 E.02052
G1 X191.828 Y138.128 E4.335
G1 X191.828 Y138.661 E.01671
M73 Q6 S111
G1 X93.428 Y40.262 E4.36359
G1 X92.784 Y40.15 E.0205
M73 P7 R110
M73 Q7 S111
G1 X191.828 Y139.194 E4.39217
G1 X191.828 Y139.728 E.01674
G1 X92.139 Y40.039 E4.42077
G1 X91.503 Y39.936 E.0202
G1 X191.828 Y140.261 E4.44897
G1 X191.828 Y140.794 E.01671
G1 X90.867 Y39.833 E4.47718
G1 X90.23 Y39.73 E.02023
G1 X191.828 Y141.327 E4.5054
G1 X191.808 Y141.841 E.01613
G1 X89.602 Y39.635 E4.53239
G1 X88.983 Y39.549 E.0196
G1 X191.786 Y142.352 E4.55886
G1 X191.764 Y142.863 E.01604
G1 X88.364 Y39.464 E4.58531
G1 X87.745 Y39.378 E.0196
M73 Q7 S110
G1 X191.741 Y143.374 E4.61177
G1 X191.719 Y143.885 E.01604
M73 P7 R109
G1 X87.125 Y39.292 E4.63826
G1 X86.506 Y39.206 E.0196
M73 P8 R109
M73 Q8 S110
G1 X191.661 Y144.36 E4.66314
G1 X191.599 Y144.832 E.01493
G1 X85.887 Y39.12 E4.68786
G1 X85.271 Y39.037 E.01949
G1 X191.537 Y145.303 E4.71243
G1 X191.475 Y145.774 E.0149
G1 X84.66 Y38.959 E4.73678
G1 X84.049 Y38.882 E.01931
G1 X191.413 Y146.246 E4.76112
G1 X191.329 Y146.696 E.01435
G1 X83.438 Y38.804 E4.78451
G1 X82.837 Y38.736 E.01897
M73 Q8 S109
G1 X191.233 Y147.132 E4.80689
G1 X191.136 Y147.569 E.01404
M73 P8 R108
G1 X82.241 Y38.674 E4.82901
G1 X81.645 Y38.611 E.01879
G1 X191.039 Y148.005 E4.85114
G1 X190.942 Y148.442 E.01404
M73 P9 R108
G1 X81.049 Y38.549 E4.87327
G1 X80.453 Y38.486 E.01879
M73 Q9 S109
