; generated by PrusaSlicer 2.9.2 on 2025-07-10 at 15:22:01 UTC


;
;
; 

; external perimeters extrusion width = 0.45mm
; perimeters extrusion width = 0.45mm
; infill extrusion width = 0.45mm
; solid infill extrusion width = 0.45mm
; top infill extrusion width = 0.40mm
; first layer extrusion width = 0.42mm

M73 P0 R143
M73 Q0 S144
M201 X1000 Y1000 Z200 E5000 ; sets maximum accelerations, mm/sec^2
M203 X200 Y200 Z12 E120 ; sets maximum feedrates, mm / sec
M204 S1250 T1250 ; sets acceleration (S) and retract acceleration (R), mm/sec^2
M205 X8.00 Y8.00 Z0.40 E4.50 ; sets the jerk limits, mm/sec
M205 S0 T0 ; sets the minimum extruding and travel feed rate, mm/sec

; printing object krilo_p1_v3.stl id:0 copy 0
; stop printing object krilo_p1_v3.stl id:0 copy 0

;TYPE:Custom
M862.3 P "MK3S" ; printer model check
M862.1 P0.4 ; nozzle diameter check
M115 U3.14.1 ; tell printer latest fw version
G90 ; use absolute coordinates
M83 ; extruder relative mode
M104 S240 ; set extruder temp
M140 S85 ; set bed temp
M190 S85 ; wait for bed temp
M109 S240 ; wait for extruder temp
G28 W ; home all without mesh bed level
G80 X8.67709 Y35.0624 W232.646 H139.875 ; mesh bed levelling

G1 Z0.2 F720
G1 Y-3 F1000 ; go outside print area
G92 E0
G1 X60 E9 F1000 ; intro line
G1 X100 E12.5 F1000 ; intro line

G92 E0
M221 S95

; Don't change E values below. Excessive value can damage the printer.
M907 E430 ; set extruder motor current
G21 ; set units to millimeters
G90 ; use absolute coordinates
M83 ; use relative distances for extrusion

M900 K0.08 ; Filament gcode LA 1.5
M900 K45 ; Filament gcode LA 1.0




M107
;LAYER_CHANGE
;Z:0.2
;HEIGHT:0.2
G1 E-1 F2100
G1 Z.4 F720
G1 X76.984 Y107.778 F10800
G1 Z.2 F720
G1 E1 F2100
M204 S800
;TYPE:Skirt/Brim
;WIDTH:0.42
G1 F1200
G1 X156.782 Y50.78 E3.07472
G1 X157.261 Y50.521 E.01707
G1 X164.281 Y47.789 E.23619
G1 X171.553 Y45.268 E.24132
G1 X178.836 Y43.045 E.23875
G1 X186.117 Y41.114 E.23618
G1 X193.545 Y39.436 E.23877
G1 X201.11 Y38.023 E.2413
G1 X208.562 Y36.917 E.23621
G1 X216.131 Y36.079 E.23877
G1 X223.807 Y35.52 E.24131
G1 X232.044 Y35.252 E.2584
G1 X238.95 Y35.264 E.21653
G1 X240.197 Y35.658 E.041
G1 X240.998 Y36.692 E.04101
G1 X241.134 Y37.453 E.02424
G1 X241.134 Y172.56 E4.23619
G1 X240.744 Y173.809 E.04103
G1 X239.711 Y174.611 E.041
G1 X238.946 Y174.749 E.02437
G1 X11.054 Y174.749 E7.14539
G1 X9.806 Y174.358 E.04101
G1 X9.004 Y173.325 E.041
G1 X8.866 Y172.56 E.02437
G1 X8.866 Y157.56 E.47031
G1 X9.256 Y156.312 E.041
G1 X9.782 Y155.78 E.02346
G1 X76.935 Y107.813 E2.58751
M204 S1000
;WIPE_START
G1 F8640
M73 P0 R142
G1 X76.984 Y107.778 E-.0139
G1 X80.459 Y105.296 E-.9861
;WIPE_END
G1 Z.4 F720
; printing object krilo_p1_v3.stl id:0 copy 0
G1 X231.372 Y139.471 F10800
G1 Z.2 F720
G1 E1 F2100
M204 S800
;TYPE:Perimeter
;WIDTH:0.419999
G1 F1200
G1 X231.533 Y139.579 E.00608
G1 X231.803 Y139.607 E.00851
G1 X238.159 Y138.714 E.20124
G1 X238.159 Y145.132 E.20123
G1 X238.159 Y171.773 E.83531
G1 X11.841 Y171.773 E7.09603
G1 X11.841 Y158.348 E.42093
M73 Q0 S143
G1 X28.132 Y158.348 E.51079
G1 X28.23 Y158.339 E.00309
G1 X28.488 Y158.222 E.00888
G1 X158.454 Y53.25 E5.23816
G1 X165.346 Y50.568 E.23188
G1 X172.436 Y48.109 E.23529
G1 X179.613 Y45.917 E.23529
G1 X186.866 Y43.994 E.23527
G1 X194.186 Y42.342 E.23529
G1 X201.562 Y40.965 E.23526
G1 X208.984 Y39.863 E.23526
G1 X216.443 Y39.039 E.23529
G1 X223.927 Y38.493 E.23528
G1 X231.426 Y38.227 E.23527
G1 X238.159 Y38.239 E.21111
G1 X238.159 Y55.41 E.53838
G1 X231.803 Y54.517 E.20124
G1 X231.61 Y54.523 E.00605
G1 X231.386 Y54.624 E.0077
G1 X231.222 Y54.817 E.00794
G1 X231.159 Y55.077 E.00839
G1 X231.159 Y64.047 E.28125
G1 X231.178 Y64.192 E.00459
G1 X231.317 Y64.439 E.00889
G1 X231.544 Y64.583 E.00843
G1 X231.803 Y64.607 E.00816
G1 X238.159 Y63.714 E.20124
G1 X238.159 Y80.41 E.52349
G1 X231.803 Y79.517 E.20124
G1 X231.648 Y79.517 E.00486
G1 X231.42 Y79.6 E.00761
G1 X231.227 Y79.808 E.0089
G1 X231.159 Y80.077 E.0087
G1 X231.159 Y89.047 E.28125
G1 X231.177 Y89.19 E.00452
G1 X231.318 Y89.44 E.009
G1 X231.544 Y89.583 E.00839
G1 X231.803 Y89.607 E.00816
G1 X238.159 Y88.714 E.20124
G1 X238.159 Y105.41 E.52349
G1 X231.803 Y104.517 E.20124
G1 X231.648 Y104.517 E.00486
G1 X231.421 Y104.6 E.00758
G1 X231.228 Y104.806 E.00885
G1 X231.159 Y105.077 E.00877
G1 X231.159 Y114.047 E.28125
G1 X231.172 Y114.169 E.00385
G1 X231.304 Y114.425 E.00903
G1 X231.547 Y114.584 E.00911
G1 X231.803 Y114.607 E.00806
G1 X238.159 Y113.714 E.20124
G1 X238.159 Y130.41 E.52349
G1 X231.803 Y129.517 E.20124
G1 X231.648 Y129.517 E.00486
G1 X231.425 Y129.597 E.00743
G1 X231.23 Y129.802 E.00887
G1 X231.159 Y130.077 E.00891
G1 X231.159 Y139.047 E.28125
G1 X231.175 Y139.182 E.00426
G1 X231.303 Y139.424 E.00858
G1 X231.323 Y139.437 E.00075
M204 S1000
G1 X231.647 Y139.203 F10800
M204 S800
;TYPE:External perimeter
G1 F1200
G1 X231.751 Y139.233 E.00339
G1 X238.536 Y138.28 E.21483
G1 X238.536 Y145.132 E.21484
G1 X238.536 Y172.15 E.84713
G1 X11.464 Y172.15 E7.11967
G1 X11.464 Y157.97 E.4446
M73 P1 R142
M73 Q1 S143
G1 X28.132 Y157.97 E.52261
G1 X28.251 Y157.929 E.00395
G1 X158.262 Y52.919 E5.24
G1 X165.216 Y50.214 E.23395
M73 P1 R141
G1 X172.319 Y47.751 E.23572
G1 X179.509 Y45.554 E.23573
G1 X186.776 Y43.628 E.23572
G1 X194.109 Y41.973 E.2357
G1 X201.5 Y40.593 E.23574
G1 X208.936 Y39.489 E.23571
G1 X216.408 Y38.663 E.23571
G1 X223.906 Y38.116 E.23572
G1 X231.42 Y37.85 E.23574
G1 X238.536 Y37.862 E.22312
G1 X238.536 Y55.844 E.56381
G1 X231.751 Y54.89 E.21483
G1 X231.6 Y54.936 E.00495
G1 X231.536 Y55.077 E.00486
G1 X231.536 Y64.047 E.28125
G1 X231.595 Y64.184 E.00468
G1 X231.751 Y64.233 E.00513
G1 X238.536 Y63.28 E.21483
G1 X238.536 Y80.844 E.55071
G1 X231.751 Y79.89 E.21483
G1 X231.603 Y79.933 E.00483
G1 X231.536 Y80.074 E.00489
G1 X231.536 Y89.047 E.28134
G1 X231.596 Y89.184 E.00469
G1 X231.751 Y89.233 E.0051
G1 X238.536 Y88.28 E.21483
G1 X238.536 Y105.844 E.55071
G1 X231.751 Y104.89 E.21483
G1 X231.603 Y104.932 E.00482
G1 X231.536 Y105.074 E.00492
G1 X231.536 Y114.047 E.28134
G1 X231.597 Y114.186 E.00476
G1 X231.751 Y114.233 E.00505
G1 X238.536 Y113.28 E.21483
G1 X238.536 Y130.844 E.55071
G1 X231.751 Y129.89 E.21483
M73 Q1 S142
G1 X231.605 Y129.931 E.00475
G1 X231.536 Y130.077 E.00506
G1 X231.536 Y139.047 E.28125
G1 X231.596 Y139.178 E.00452
M204 S1000
;WIPE_START
G1 F8640
G1 X231.647 Y139.203 E-.01311
G1 X231.751 Y139.233 E-.02499
G1 X235.876 Y138.653 E-.9619
;WIPE_END
G1 Z.4 F720
G1 X237.989 Y139.526 F10800
G1 Z.2 F720
G1 E1 F2100
M204 S800
;TYPE:Solid infill
;WIDTH:0.420375
G1 F1200
G1 X237.598 Y139.135 E.01735
G1 X237.13 Y139.201 E.01483
G1 X237.819 Y139.89 E.03058
G1 X237.819 Y140.424 E.01676
G1 X236.662 Y139.267 E.05135
G1 X236.194 Y139.332 E.01483
G1 X237.819 Y140.958 E.07215
G1 X237.819 Y141.491 E.01673
G1 X235.726 Y139.398 E.0929
G1 X235.258 Y139.464 E.01483
G1 X237.819 Y142.025 E.11367
G1 X237.819 Y142.559 E.01676
G1 X234.79 Y139.53 E.13444
G1 X234.322 Y139.596 E.01483
G1 X237.819 Y143.093 E.15522
G1 X237.819 Y143.627 E.01676
G1 X233.854 Y139.661 E.17601
G1 X233.386 Y139.727 E.01483
G1 X237.819 Y144.16 E.19676
G1 X237.819 Y144.694 E.01676
G1 X232.918 Y139.793 E.21753
G1 X232.45 Y139.859 E.01483
G1 X237.819 Y145.228 E.23831
G1 X237.819 Y145.762 E.01676
G1 X231.832 Y139.774 E.26576
M204 S1000
;WIPE_START
G1 F8640
G1 X234.894 Y142.837 E-1
;WIPE_END
G1 Z.4 F720
G1 X237.989 Y114.437 F10800
G1 Z.2 F720
G1 E1 F2100
M204 S800
G1 F1200
G1 X237.676 Y114.124 E.01389
G1 X237.208 Y114.19 E.01483
G1 X237.819 Y114.801 E.02712
G1 X237.819 Y115.335 E.01676
G1 X236.74 Y114.256 E.04789
G1 X236.272 Y114.322 E.01483
G1 X237.819 Y115.869 E.06866
G1 X237.819 Y116.403 E.01676
G1 X235.804 Y114.387 E.08946
G1 X235.336 Y114.453 E.01483
G1 X237.819 Y116.937 E.11023
G1 X237.819 Y117.47 E.01673
G1 X234.868 Y114.519 E.13098
G1 X234.4 Y114.585 E.01483
G1 X237.819 Y118.004 E.15176
G1 X237.819 Y118.538 E.01676
G1 X233.932 Y114.65 E.17255
G1 X233.464 Y114.716 E.01483
G1 X237.819 Y119.072 E.19332
G1 X237.819 Y119.606 E.01676
G1 X232.996 Y114.782 E.21409
G1 X232.528 Y114.848 E.01483
G1 X237.819 Y120.139 E.23485
G1 X237.819 Y120.673 E.01676
G1 X231.91 Y114.763 E.2623
M204 S1000
;WIPE_START
G1 F8640
G1 X234.972 Y117.826 E-1
;WIPE_END
G1 Z.4 F720
G1 X237.989 Y89.349 F10800
G1 Z.2 F720
G1 E1 F2100
M204 S800
G1 F1200
G1 X237.754 Y89.113 E.01045
G1 X237.286 Y89.179 E.01483
G1 X237.819 Y89.713 E.02368
G1 X237.819 Y90.246 E.01673
G1 X236.818 Y89.245 E.04443
G1 X236.35 Y89.311 E.01483
G1 X237.819 Y90.78 E.0652
G1 X237.819 Y91.314 E.01676
G1 X235.882 Y89.376 E.086
G1 X235.414 Y89.442 E.01483
G1 X237.819 Y91.848 E.10677
G1 X237.819 Y92.382 E.01676
G1 X234.946 Y89.508 E.12754
G1 X234.478 Y89.574 E.01483
G1 X237.819 Y92.915 E.14829
G1 X237.819 Y93.449 E.01676
G1 X234.01 Y89.639 E.16909
G1 X233.542 Y89.705 E.01483
G1 X237.819 Y93.983 E.18986
G1 X237.819 Y94.517 E.01676
G1 X233.074 Y89.771 E.21063
G1 X232.606 Y89.837 E.01483
G1 X237.819 Y95.051 E.23141
G1 X237.819 Y95.584 E.01673
G1 X231.987 Y89.752 E.25886
M204 S1000
;WIPE_START
G1 F8640
G1 X235.05 Y92.815 E-1
;WIPE_END
G1 Z.4 F720
G1 X237.989 Y64.794 F10800
G1 Z.2 F720
G1 E1 F2100
M204 S800
G1 F1200
G1 X237.364 Y64.168 E.02776
G1 X236.896 Y64.234 E.01483
G1 X237.819 Y65.158 E.04099
G1 X237.819 Y65.692 E.01676
G1 X236.428 Y64.3 E.06176
G1 X235.96 Y64.365 E.01483
G1 X237.819 Y66.225 E.08254
G1 X237.819 Y66.759 E.01676
G1 X235.491 Y64.431 E.10333
G1 X235.023 Y64.497 E.01483
G1 X237.819 Y67.293 E.1241
G1 X237.819 Y67.827 E.01676
G1 X234.555 Y64.563 E.14488
G1 X234.087 Y64.629 E.01483
G1 X237.819 Y68.361 E.16565
G1 X237.819 Y68.894 E.01673
G1 X233.619 Y64.694 E.18642
G1 X233.151 Y64.76 E.01483
G1 X237.819 Y69.428 E.20719
G1 X237.819 Y69.962 E.01676
G1 X232.683 Y64.826 E.22797
G1 X232.215 Y64.892 E.01483
G1 X237.989 Y70.665 E.25626
M204 S1000
;WIPE_START
G1 F8640
G1 X234.927 Y67.603 E-1
;WIPE_END
G1 Z.4 F720
G1 X237.989 Y39.171 F10800
G1 Z.2 F720
G1 E1 F2100
M204 S800
G1 F1200
G1 X237.395 Y38.577 E.02637
G1 X236.86 Y38.576 E.01679
G1 X237.819 Y39.535 E.04257
G1 X237.819 Y40.069 E.01676
G1 X236.325 Y38.575 E.06631
G1 X235.79 Y38.574 E.01679
G1 X237.819 Y40.603 E.09006
G1 X237.819 Y41.137 E.01676
G1 X235.256 Y38.573 E.11378
G1 X234.721 Y38.572 E.01679
G1 X237.819 Y41.67 E.13751
G1 X237.819 Y42.204 E.01676
G1 X234.186 Y38.571 E.16125
G1 X233.651 Y38.57 E.01679
G1 X237.819 Y42.738 E.185
G1 X237.819 Y43.272 E.01676
G1 X233.117 Y38.569 E.20872
G1 X232.582 Y38.568 E.01679
G1 X237.819 Y43.806 E.23247
G1 X237.819 Y44.339 E.01673
G1 X232.047 Y38.567 E.25619
G1 X231.514 Y38.568 E.01673
G1 X237.819 Y44.873 E.27985
G1 X237.819 Y45.407 E.01676
G1 X230.998 Y38.586 E.30276
G1 X230.482 Y38.604 E.0162
G1 X237.819 Y45.941 E.32566
G1 X237.819 Y46.475 E.01676
G1 X229.966 Y38.622 E.34856
G1 X229.451 Y38.64 E.01617
G1 X237.819 Y47.008 E.37142
G1 X237.819 Y47.542 E.01676
G1 X228.935 Y38.658 E.39432
G1 X228.419 Y38.676 E.0162
G1 X237.819 Y48.076 E.41723
G1 X237.819 Y48.61 E.01676
G1 X227.903 Y38.694 E.44013
G1 X227.387 Y38.712 E.0162
G1 X237.819 Y49.144 E.46303
G1 X237.819 Y49.677 E.01673
G1 X226.872 Y38.73 E.48589
G1 X226.356 Y38.748 E.0162
G1 X237.819 Y50.211 E.50879
G1 X237.819 Y50.745 E.01676
G1 X225.84 Y38.766 E.5317
G1 X225.324 Y38.784 E.0162
G1 X237.819 Y51.279 E.5546
G1 X237.819 Y51.813 E.01676
G1 X224.808 Y38.802 E.5775
G1 X224.293 Y38.82 E.01617
G1 X237.819 Y52.346 E.60036
G1 X237.819 Y52.88 E.01676
G1 X223.783 Y38.844 E.623
G1 X223.285 Y38.88 E.01567
G1 X237.819 Y53.414 E.6451
G1 X237.819 Y53.948 E.01676
G1 X222.788 Y38.916 E.66719
G1 X222.29 Y38.953 E.01567
G1 X237.819 Y54.482 E.68927
G1 X237.819 Y55.015 E.01673
G1 X221.793 Y38.989 E.71133
G1 X221.295 Y39.025 E.01567
G1 X237.204 Y54.934 E.70613
G1 X236.584 Y54.848 E.01965
G1 X220.798 Y39.061 E.7007
G1 X220.3 Y39.098 E.01567
G1 X235.964 Y54.761 E.69524
G1 X235.343 Y54.674 E.01968
G1 X219.803 Y39.134 E.68976
G1 X219.305 Y39.17 E.01567
G1 X234.723 Y54.588 E.68434
G1 X234.102 Y54.501 E.01968
G1 X218.808 Y39.206 E.67886
G1 X218.31 Y39.243 E.01567
G1 X233.482 Y54.415 E.67342
G1 X232.862 Y54.328 E.01965
G1 X217.813 Y39.279 E.66796
G1 X217.315 Y39.315 E.01567
G1 X232.241 Y54.242 E.66252
G1 X231.736 Y54.171 E.01601
G1 X231.646 Y54.18 E.00284
G1 X216.817 Y39.352 E.65818
G1 X216.325 Y39.393 E.0155
G1 X231.242 Y54.31 E.6621
G1 X231.07 Y54.45 E.00696
G1 X230.981 Y54.583 E.00502
G1 X215.844 Y39.446 E.67187
G1 X215.364 Y39.499 E.01516
M73 P1 R140
G1 X230.831 Y54.967 E.68654
G1 X230.819 Y55.489 E.01639
G1 X214.883 Y39.552 E.70735
G1 X214.402 Y39.606 E.01519
G1 X230.819 Y56.023 E.72868
G1 X230.819 Y56.556 E.01673
G1 X213.922 Y39.659 E.74999
G1 X213.441 Y39.712 E.01519
G1 X230.819 Y57.09 E.77134
G1 X230.819 Y57.624 E.01676
G1 X212.96 Y39.765 E.79269
G1 X212.48 Y39.818 E.01516
G1 X230.819 Y58.158 E.81401
G1 X230.819 Y58.692 E.01676
G1 X211.999 Y39.871 E.83536
G1 X211.518 Y39.924 E.01519
G1 X230.819 Y59.225 E.85669
G1 X230.819 Y59.759 E.01676
M73 Q1 S141
G1 X211.038 Y39.977 E.87802
G1 X210.557 Y40.031 E.01519
M73 P2 R140
M73 Q2 S141
G1 X230.819 Y60.293 E.89935
G1 X230.819 Y60.827 E.01676
G1 X210.076 Y40.084 E.9207
G1 X209.596 Y40.137 E.01516
G1 X230.819 Y61.361 E.94202
G1 X230.819 Y61.894 E.01673
G1 X209.115 Y40.19 E.96335
G1 X208.647 Y40.256 E.01483
G1 X230.819 Y62.428 E.98412
G1 X230.819 Y62.962 E.01676
G1 X208.182 Y40.325 E1.00476
G1 X207.718 Y40.394 E.01472
G1 X230.989 Y63.665 E1.0329
M204 S1000
;WIPE_START
G1 F8640
G1 X227.927 Y60.603 E-1
;WIPE_END
G1 Z.4 F720
G1 X237.989 Y71.199 F10800
G1 Z.2 F720
G1 E1 F2100
M204 S800
G1 F1200
G1 X231.734 Y64.945 E.27761
G1 X231.602 Y64.945 E.00414
G1 X231.363 Y64.878 E.00779
G1 X231.185 Y64.775 E.00645
G1 X231.016 Y64.613 E.00735
G1 X230.868 Y64.347 E.00955
G1 X230.819 Y64.03 E.01007
G1 X207.253 Y40.463 E1.04602
G1 X206.788 Y40.532 E.01475
G1 X237.819 Y71.563 E1.37734
G1 X237.819 Y72.097 E.01676
G1 X206.323 Y40.601 E1.39798
G1 X205.858 Y40.67 E.01475
G1 X237.819 Y72.631 E1.41862
G1 X237.819 Y73.165 E.01676
G1 X205.394 Y40.739 E1.43923
G1 X204.929 Y40.808 E.01475
G1 X237.819 Y73.699 E1.45987
G1 X237.819 Y74.232 E.01673
G1 X204.464 Y40.877 E1.48049
G1 X203.999 Y40.946 E.01475
G1 X237.819 Y74.766 E1.50113
G1 X237.819 Y75.3 E.01676
G1 X203.534 Y41.015 E1.52177
G1 X203.07 Y41.084 E.01472
G1 X237.819 Y75.834 E1.54238
G1 X237.819 Y76.368 E.01676
G1 X202.605 Y41.153 E1.56302
G1 X202.14 Y41.222 E.01475
G1 X237.819 Y76.901 E1.58364
G1 X237.819 Y77.435 E.01676
G1 X201.675 Y41.291 E1.60428
G1 X201.223 Y41.373 E.01442
G1 X237.819 Y77.969 E1.62434
G1 X237.819 Y78.503 E.01676
G1 X200.774 Y41.457 E1.64429
G1 X200.324 Y41.541 E.01437
M73 P2 R139
G1 X237.819 Y79.037 E1.66427
G1 X237.819 Y79.57 E.01673
G1 X199.874 Y41.625 E1.68422
G1 X199.424 Y41.709 E.01437
G1 X237.722 Y80.006 E1.69987
G1 X237.101 Y79.92 E.01968
G1 X198.974 Y41.793 E1.6923
G1 X198.525 Y41.877 E.01434
M73 Q2 S140
G1 X236.481 Y79.834 E1.68473
G1 X235.861 Y79.747 E.01965
G1 X198.075 Y41.961 E1.67716
G1 X197.625 Y42.045 E.01437
G1 X235.241 Y79.661 E1.66962
G1 X234.621 Y79.575 E.01965
G1 X197.175 Y42.129 E1.66207
G1 X196.725 Y42.213 E.01437
G1 X234.001 Y79.488 E1.6545
G1 X233.381 Y79.402 E.01965
G1 X196.276 Y42.297 E1.64694
G1 X195.826 Y42.381 E.01437
G1 X232.76 Y79.316 E1.63937
G1 X232.14 Y79.229 E.01965
G1 X195.376 Y42.465 E1.6318
G1 X194.926 Y42.549 E.01437
G1 X231.567 Y79.189 E1.62632
G1 X231.36 Y79.248 E.00676
G1 X231.19 Y79.346 E.00616
G1 X194.477 Y42.633 E1.62954
G1 X194.034 Y42.724 E.01419
M73 P3 R139
G1 X230.94 Y79.631 E1.63813
G1 X230.886 Y79.735 E.00368
M73 Q3 S140
G1 X230.836 Y79.901 E.00544
G1 X230.822 Y80.046 E.00457
G1 X193.598 Y42.823 E1.6522
G1 X193.163 Y42.921 E.01399
G1 X230.819 Y80.577 E1.67139
G1 X230.819 Y81.111 E.01676
G1 X192.727 Y43.019 E1.69074
G1 X192.292 Y43.117 E.01399
G1 X230.819 Y81.645 E1.71007
G1 X230.819 Y82.179 E.01676
G1 X191.856 Y43.216 E1.7294
G1 X191.421 Y43.314 E.01399
G1 X230.819 Y82.713 E1.74873
G1 X230.819 Y83.246 E.01673
G1 X190.985 Y43.412 E1.76806
G1 X190.55 Y43.511 E.014
M73 P3 R138
G1 X230.819 Y83.78 E1.78737
G1 X230.819 Y84.314 E.01676
G1 X190.114 Y43.609 E1.80672
G1 X189.679 Y43.707 E.01399
G1 X230.819 Y84.848 E1.82605
